X:210
T:Mills are Grinding, The
T:Turtle's Reel, The
T:Customs Gap, The
M:4/4
L:1/8
S:Kevin Burke
R:reel
Z:Barney
K:DDor
A,DDE FEFG|(3AcA Gc Ad d2|A,DDE F2 dB|cAGE FDEC|
A,DDE FEFG|(3AcA Gc Adde|fded dcAB|1 cA GE FDEC:|2 cAGE ED D2||
|d2 dB c2 cG|AddB cAGA|d2 dB cdcA|GEcE ED D2|
d2 dB c2 cG|Addc d2 de|fded dcAB|1 cA GE ED D2:|2 cA GE FDEC||
